images/cardio-icon.svg

<svg xmlns="http://www.w3.org/2000/svg" xmlns:xlink="http://www.w3.org/1999/xlink" width="107" zoomAndPan="magnify" viewBox="0 0 80.25 74.249996" height="99" preserveAspectRatio="xMidYMid meet" version="1.0"><defs><clipPath id="433900259f"><path d="M 0.03125 2 L 78 2 L 78 73.507812 L 0.03125 73.507812 Z M 0.03125 2 " clip-rule="nonzero"/></clipPath></defs><g clip-path="url(#433900259f)"><path fill="#012430" d="M 70.359375 9.210938 C 61.6875 0.5625 47.925781 0.046875 38.664062 7.664062 C 29.40625 0.046875 15.640625 0.558594 6.96875 9.210938 C 6.421875 9.757812 5.898438 10.328125 5.40625 10.925781 C 4.914062 11.523438 4.453125 12.140625 4.023438 12.785156 C 3.59375 13.425781 3.195312 14.089844 2.828125 14.769531 C 2.460938 15.453125 2.128906 16.148438 1.832031 16.863281 C 1.535156 17.578125 1.277344 18.304688 1.050781 19.046875 C 0.824219 19.785156 0.636719 20.535156 0.484375 21.292969 C 0.332031 22.050781 0.21875 22.816406 0.144531 23.585938 C 0.0664062 24.355469 0.03125 25.128906 0.03125 25.902344 C 0.03125 26.675781 0.0664062 27.445312 0.144531 28.214844 C 0.21875 28.984375 0.332031 29.75 0.484375 30.507812 C 0.636719 31.265625 0.824219 32.015625 1.050781 32.757812 C 1.277344 33.496094 1.535156 34.222656 1.832031 34.9375 C 2.128906 35.652344 2.460938 36.351562 2.828125 37.03125 C 3.195312 37.714844 3.59375 38.375 4.023438 39.019531 C 4.453125 39.660156 4.914062 40.28125 5.40625 40.875 C 5.898438 41.472656 6.421875 42.042969 6.96875 42.589844 L 36.957031 72.582031 C 37.183594 72.808594 37.445312 72.980469 37.742188 73.105469 C 38.035156 73.226562 38.34375 73.289062 38.664062 73.289062 C 38.984375 73.289062 39.292969 73.226562 39.585938 73.105469 C 39.882812 72.980469 40.144531 72.808594 40.371094 72.582031 L 70.359375 42.589844 C 72.371094 40.578125 73.972656 38.28125 75.164062 35.695312 C 75.167969 35.691406 75.167969 35.6875 75.167969 35.679688 C 75.660156 34.589844 76.066406 33.472656 76.386719 32.320312 C 76.707031 31.171875 76.941406 30.003906 77.085938 28.820312 C 77.230469 27.632812 77.285156 26.445312 77.25 25.25 C 77.214844 24.054688 77.089844 22.871094 76.878906 21.699219 C 76.664062 20.523438 76.363281 19.371094 75.976562 18.242188 C 75.589844 17.109375 75.117188 16.015625 74.566406 14.957031 C 74.011719 13.898438 73.382812 12.890625 72.679688 11.925781 C 71.972656 10.960938 71.199219 10.054688 70.359375 9.210938 Z M 10.378906 12.625 C 10.8125 12.191406 11.269531 11.78125 11.746094 11.390625 C 12.222656 11 12.71875 10.636719 13.230469 10.296875 C 13.742188 9.953125 14.269531 9.640625 14.8125 9.351562 C 15.355469 9.0625 15.910156 8.796875 16.480469 8.5625 C 17.046875 8.328125 17.625 8.121094 18.214844 7.945312 C 18.804688 7.765625 19.398438 7.617188 20.003906 7.496094 C 20.605469 7.378906 21.214844 7.289062 21.828125 7.226562 C 22.4375 7.167969 23.050781 7.136719 23.667969 7.136719 C 24.28125 7.136719 24.898438 7.167969 25.507812 7.226562 C 26.121094 7.289062 26.730469 7.378906 27.332031 7.496094 C 27.9375 7.617188 28.53125 7.765625 29.121094 7.941406 C 29.710938 8.121094 30.289062 8.328125 30.855469 8.5625 C 31.425781 8.796875 31.980469 9.058594 32.523438 9.347656 C 33.066406 9.636719 33.59375 9.953125 34.109375 10.292969 C 34.621094 10.632812 35.113281 11 35.589844 11.386719 C 36.066406 11.777344 36.523438 12.191406 36.957031 12.625 C 37.183594 12.851562 37.445312 13.023438 37.742188 13.148438 C 38.035156 13.269531 38.34375 13.332031 38.664062 13.332031 C 38.984375 13.332031 39.292969 13.269531 39.585938 13.148438 C 39.882812 13.023438 40.144531 12.851562 40.371094 12.625 C 47.6875 5.308594 59.609375 5.304688 66.949219 12.625 C 72.097656 17.773438 73.722656 25.492188 71.289062 32.269531 L 50.726562 32.269531 C 50.269531 32.269531 49.847656 32.390625 49.460938 32.632812 C 49.070312 32.871094 48.773438 33.195312 48.570312 33.605469 L 43.9375 42.871094 L 36.125 19.445312 C 35.972656 18.980469 35.703125 18.601562 35.316406 18.300781 C 34.929688 18.003906 34.496094 17.835938 34.007812 17.800781 C 33.523438 17.765625 33.066406 17.871094 32.644531 18.113281 C 32.21875 18.351562 31.898438 18.691406 31.679688 19.128906 L 25.109375 32.269531 L 6.039062 32.269531 C 3.609375 25.492188 5.230469 17.773438 10.378906 12.625 Z M 38.664062 67.464844 L 10.378906 39.175781 C 9.75 38.527344 9.167969 37.832031 8.636719 37.097656 L 26.601562 37.097656 C 27.058594 37.097656 27.480469 36.976562 27.867188 36.734375 C 28.257812 36.496094 28.554688 36.171875 28.757812 35.761719 L 33.390625 26.496094 L 41.203125 49.921875 C 41.355469 50.386719 41.625 50.765625 42.011719 51.066406 C 42.394531 51.363281 42.832031 51.53125 43.320312 51.566406 C 43.378906 51.570312 43.433594 51.574219 43.492188 51.574219 C 43.949219 51.574219 44.371094 51.453125 44.757812 51.210938 C 45.148438 50.972656 45.445312 50.648438 45.648438 50.238281 L 52.21875 37.097656 L 68.691406 37.097656 C 68.160156 37.832031 67.578125 38.527344 66.949219 39.179688 Z M 38.664062 67.464844 " fill-opacity="1" fill-rule="nonzero"/><path fill="#012430" d="M 70.359375 9.210938 C 61.6875 0.5625 47.925781 0.046875 38.664062 7.664062 C 29.40625 0.046875 15.640625 0.558594 6.96875 9.210938 C 6.421875 9.757812 5.898438 10.328125 5.40625 10.925781 C 4.914062 11.523438 4.453125 12.140625 4.023438 12.785156 C 3.59375 13.425781 3.195312 14.089844 2.828125 14.769531 C 2.460938 15.453125 2.128906 16.148438 1.832031 16.863281 C 1.535156 17.578125 1.277344 18.304688 1.050781 19.046875 C 0.824219 19.785156 0.636719 20.535156 0.484375 21.292969 C 0.332031 22.050781 0.21875 22.816406 0.144531 23.585938 C 0.0664062 24.355469 0.03125 25.128906 0.03125 25.902344 C 0.03125 26.675781 0.0664062 27.445312 0.144531 28.214844 C 0.21875 28.984375 0.332031 29.75 0.484375 30.507812 C 0.636719 31.265625 0.824219 32.015625 1.050781 32.757812 C 1.277344 33.496094 1.535156 34.222656 1.832031 34.9375 C 2.128906 35.652344 2.460938 36.351562 2.828125 37.03125 C 3.195312 37.714844 3.59375 38.375 4.023438 39.019531 C 4.453125 39.660156 4.914062 40.28125 5.40625 40.875 C 5.898438 41.472656 6.421875 42.042969 6.96875 42.589844 L 36.957031 72.582031 C 37.183594 72.808594 37.445312 72.980469 37.742188 73.105469 C 38.035156 73.226562 38.34375 73.289062 38.664062 73.289062 C 38.984375 73.289062 39.292969 73.226562 39.585938 73.105469 C 39.882812 72.980469 40.144531 72.808594 40.371094 72.582031 L 70.359375 42.589844 C 72.371094 40.578125 73.972656 38.28125 75.164062 35.695312 C 75.167969 35.691406 75.167969 35.6875 75.167969 35.679688 C 75.660156 34.589844 76.066406 33.472656 76.386719 32.320312 C 76.707031 31.171875 76.941406 30.003906 77.085938 28.820312 C 77.230469 27.632812 77.285156 26.445312 77.25 25.25 C 77.214844 24.054688 77.089844 22.871094 76.878906 21.699219 C 76.664062 20.523438 76.363281 19.371094 75.976562 18.242188 C 75.589844 17.109375 75.117188 16.015625 74.566406 14.957031 C 74.011719 13.898438 73.382812 12.890625 72.679688 11.925781 C 71.972656 10.960938 71.199219 10.054688 70.359375 9.210938 Z M 10.378906 12.625 C 10.8125 12.191406 11.269531 11.78125 11.746094 11.390625 C 12.222656 11 12.71875 10.636719 13.230469 10.296875 C 13.742188 9.953125 14.269531 9.640625 14.8125 9.351562 C 15.355469 9.0625 15.910156 8.796875 16.480469 8.5625 C 17.046875 8.328125 17.625 8.121094 18.214844 7.945312 C 18.804688 7.765625 19.398438 7.617188 20.003906 7.496094 C 20.605469 7.378906 21.214844 7.289062 21.828125 7.226562 C 22.4375 7.167969 23.050781 7.136719 23.667969 7.136719 C 24.28125 7.136719 24.898438 7.167969 25.507812 7.226562 C 26.121094 7.289062 26.730469 7.378906 27.332031 7.496094 C 27.9375 7.617188 28.53125 7.765625 29.121094 7.941406 C 29.710938 8.121094 30.289062 8.328125 30.855469 8.5625 C 31.425781 8.796875 31.980469 9.058594 32.523438 9.347656 C 33.066406 9.636719 33.59375 9.953125 34.109375 10.292969 C 34.621094 10.632812 35.113281 11 35.589844 11.386719 C 36.066406 11.777344 36.523438 12.191406 36.957031 12.625 C 37.183594 12.851562 37.445312 13.023438 37.742188 13.148438 C 38.035156 13.269531 38.34375 13.332031 38.664062 13.332031 C 38.984375 13.332031 39.292969 13.269531 39.585938 13.148438 C 39.882812 13.023438 40.144531 12.851562 40.371094 12.625 C 47.6875 5.308594 59.609375 5.304688 66.949219 12.625 C 72.097656 17.773438 73.722656 25.492188 71.289062 32.269531 L 50.726562 32.269531 C 50.269531 32.269531 49.847656 32.390625 49.460938 32.632812 C 49.070312 32.871094 48.773438 33.195312 48.570312 33.605469 L 43.9375 42.871094 L 36.125 19.445312 C 35.972656 18.980469 35.703125 18.601562 35.316406 18.300781 C 34.929688 18.003906 34.496094 17.835938 34.007812 17.800781 C 33.523438 17.765625 33.066406 17.871094 32.644531 18.113281 C 32.21875 18.351562 31.898438 18.691406 31.679688 19.128906 L 25.109375 32.269531 L 6.039062 32.269531 C 3.609375 25.492188 5.230469 17.773438 10.378906 12.625 Z M 38.664062 67.464844 L 10.378906 39.175781 C 9.75 38.527344 9.167969 37.832031 8.636719 37.097656 L 26.601562 37.097656 C 27.058594 37.097656 27.480469 36.976562 27.867188 36.734375 C 28.257812 36.496094 28.554688 36.171875 28.757812 35.761719 L 33.390625 26.496094 L 41.203125 49.921875 C 41.355469 50.386719 41.625 50.765625 42.011719 51.066406 C 42.394531 51.363281 42.832031 51.53125 43.320312 51.566406 C 43.378906 51.570312 43.433594 51.574219 43.492188 51.574219 C 43.949219 51.574219 44.371094 51.453125 44.757812 51.210938 C 45.148438 50.972656 45.445312 50.648438 45.648438 50.238281 L 52.21875 37.097656 L 68.691406 37.097656 C 68.160156 37.832031 67.578125 38.527344 66.949219 39.179688 Z M 38.664062 67.464844 " fill-opacity="1" fill-rule="nonzero"/></g></svg>

<svg xmlns="http://www.w3.org/2000/svg" width="107" height="99" viewBox="0 0 80.25 74.25"><defs><clipPath id="a"><path d="M.031 2H78v71.508H.031Zm0 0"/></clipPath></defs><g fill="#012430" clip-path="url(#a)"><path d="M70.36 9.21C61.687.564 47.925.048 38.663 7.665 29.406.047 15.641.56 6.97 9.211a24 24 0 0 0-1.563 1.715 23 23 0 0 0-1.383 1.86q-.645.962-1.195 1.984a23.3 23.3 0 0 0-2.344 6.523 23 23 0 0 0-.34 2.293Q.03 24.742.032 25.902c0 .774.035 1.543.114 2.313q.11 1.156.34 2.293a23.7 23.7 0 0 0 1.347 4.43q.446 1.073.996 2.093c.367.684.766 1.344 1.195 1.989.43.64.891 1.261 1.383 1.855A24 24 0 0 0 6.97 42.59l29.988 29.992a2.43 2.43 0 0 0 1.707.707q.481 0 .922-.184c.297-.125.559-.296.785-.523L70.36 42.59a23.7 23.7 0 0 0 4.805-6.895q.005-.005.004-.015a23.721 23.721 0 0 0 2.082-10.43 24 24 0 0 0-.371-3.55 24 24 0 0 0-2.313-6.743 23.7 23.7 0 0 0-4.207-5.746m-59.981 3.415a18.7 18.7 0 0 1 2.851-2.328 18 18 0 0 1 1.582-.945 18.6 18.6 0 0 1 3.403-1.407 18.7 18.7 0 0 1 9.117-.449q.906.182 1.79.445a19 19 0 0 1 4.987 2.352q.767.512 1.48 1.094.716.586 1.368 1.238a2.43 2.43 0 0 0 1.707.707q.481 0 .922-.184c.297-.125.559-.296.785-.523 7.316-7.316 19.238-7.32 26.578 0 5.149 5.148 6.774 12.867 4.34 19.645H50.727q-.686 0-1.266.363-.586.357-.89.972l-4.633 9.266-7.813-23.426a2.34 2.34 0 0 0-.809-1.144 2.4 2.4 0 0 0-1.308-.5 2.35 2.35 0 0 0-1.363.312 2.33 2.33 0 0 0-.965 1.016l-6.57 13.14H6.04c-2.43-6.777-.81-14.496 4.339-19.644m28.285 54.84L10.38 39.175a19 19 0 0 1-1.742-2.077h17.965q.685 0 1.265-.364.586-.357.89-.972l4.634-9.266 7.812 23.426q.228.696.809 1.144.575.447 1.308.5.087.007.172.008.686 0 1.266-.363.585-.358.89-.973l6.57-13.14h16.473a19 19 0 0 1-1.742 2.082Zm0 0"/><path d="M70.36 9.21C61.687.564 47.925.048 38.663 7.665 29.406.047 15.641.56 6.97 9.211a24 24 0 0 0-1.563 1.715 23 23 0 0 0-1.383 1.86q-.645.962-1.195 1.984a23.3 23.3 0 0 0-2.344 6.523 23 23 0 0 0-.34 2.293Q.03 24.742.032 25.902c0 .774.035 1.543.114 2.313q.11 1.156.34 2.293a23.7 23.7 0 0 0 1.347 4.43q.446 1.073.996 2.093c.367.684.766 1.344 1.195 1.989.43.64.891 1.261 1.383 1.855A24 24 0 0 0 6.97 42.59l29.988 29.992a2.43 2.43 0 0 0 1.707.707q.481 0 .922-.184c.297-.125.559-.296.785-.523L70.36 42.59a23.7 23.7 0 0 0 4.805-6.895q.005-.005.004-.015a23.721 23.721 0 0 0 2.082-10.43 24 24 0 0 0-.371-3.55 24 24 0 0 0-2.313-6.743 23.7 23.7 0 0 0-4.207-5.746m-59.981 3.415a18.7 18.7 0 0 1 2.851-2.328 18 18 0 0 1 1.582-.945 18.6 18.6 0 0 1 3.403-1.407 18.7 18.7 0 0 1 9.117-.449q.906.182 1.79.445a19 19 0 0 1 4.987 2.352q.767.512 1.48 1.094.716.586 1.368 1.238a2.43 2.43 0 0 0 1.707.707q.481 0 .922-.184c.297-.125.559-.296.785-.523 7.316-7.316 19.238-7.32 26.578 0 5.149 5.148 6.774 12.867 4.34 19.645H50.727q-.686 0-1.266.363-.586.357-.89.972l-4.633 9.266-7.813-23.426a2.34 2.34 0 0 0-.809-1.144 2.4 2.4 0 0 0-1.308-.5 2.35 2.35 0 0 0-1.363.312 2.33 2.33 0 0 0-.965 1.016l-6.57 13.14H6.04c-2.43-6.777-.81-14.496 4.339-19.644m28.285 54.84L10.38 39.175a19 19 0 0 1-1.742-2.077h17.965q.685 0 1.265-.364.586-.357.89-.972l4.634-9.266 7.812 23.426q.228.696.809 1.144.575.447 1.308.5.087.007.172.008.686 0 1.266-.363.585-.358.89-.973l6.57-13.14h16.473a19 19 0 0 1-1.742 2.082Zm0 0"/></g></svg>
